build/img/icons/sprite.svg

<?xml version="1.0" encoding="UTF-8"?><!DOCTYPE svg PUBLIC "-//W3C//DTD SVG 1.1//EN" "http://www.w3.org/Graphics/SVG/1.1/DTD/svg11.dtd"><svg xmlns="http://www.w3.org/2000/svg" xmlns:xlink="http://www.w3.org/1999/xlink"><symbol id="lide-decor-1" viewBox="0 0 36 66">
<path d="M10.9993 44.4374C11.5336 44.9717 11.8654 45.7119 11.8654 46.5288C11.8654 48.1626 10.5402 49.4863 8.90786 49.4863H3.84054H3.17105C2.35416 49.4863 1.6156 49.1546 1.07963 48.6202C0.54365 48.0859 0.213543 47.3457 0.213543 46.5288C0.213543 44.895 1.53726 43.5713 3.17105 43.5713H8.90786C9.72326 43.5714 10.4633 43.903 10.9993 44.4374Z" fill="#FFDFCF"/>
<path d="M9.23285 47.5526H4.16553H3.49604C2.67915 47.5526 1.94059 47.2209 1.40462 46.6865C0.981068 46.2642 0.688786 45.7109 0.583684 45.0952C0.348213 45.5197 0.213808 46.009 0.213808 46.5288C0.213808 47.3457 0.543915 48.0859 1.07989 48.6202C1.61587 49.1546 2.35442 49.4863 3.17132 49.4863H3.8408H8.90813C10.5404 49.4863 11.8656 48.1626 11.8656 46.5288C11.8656 46.3575 11.8478 46.1905 11.8199 46.0269C11.315 46.9365 10.3458 47.5526 9.23285 47.5526Z" fill="#FFCEBF"/>
<path d="M10.8412 38.4873C11.3784 39.0244 11.7118 39.7684 11.7118 40.5895C11.7118 42.2316 10.3798 43.5622 8.73902 43.5622H3.64568H2.97276C2.15168 43.5622 1.40924 43.2288 0.870568 42.6917C0.331901 42.1545 0 41.4105 0 40.5895C0 38.9473 1.33045 37.6167 2.97276 37.6167H8.73917C9.55861 37.6167 10.3025 37.9501 10.8412 38.4873Z" fill="#FFDFCF"/>
<path d="M9.07421 41.8582H3.98087H3.30795C2.48687 41.8582 1.74443 41.5248 1.20576 40.9877C0.73437 40.5176 0.421455 39.887 0.35059 39.187C0.127379 39.6043 0 40.0827 0 40.5891C0 41.4102 0.331901 42.1541 0.870568 42.6913C1.40924 43.2284 2.15168 43.5618 2.97276 43.5618H3.64568H8.73902C10.3797 43.5618 11.7118 42.2314 11.7118 40.5891C11.7118 40.4864 11.7065 40.385 11.6964 40.285C11.1955 41.2212 10.2091 41.8582 9.07421 41.8582Z" fill="#FFCEBF"/>
<path d="M22.9441 59.9738C24.0444 59.9738 25.1269 59.6972 26.0912 59.168L31.4689 56.2197H34.0117C34.8087 56.2197 35.4547 55.5737 35.4547 54.7767V40.0211C35.4547 39.2241 34.8087 38.5781 34.0117 38.5781H9.27364V59.9738H22.9441Z" fill="#FFDFCF"/>
<path d="M34.0117 53.4723H31.4689L26.0912 56.4206C25.1269 56.9498 24.0444 57.2264 22.9441 57.2264H9.27364V59.9738H22.9441C24.0444 59.9738 25.1269 59.6973 26.0912 59.168L31.4689 56.2198H34.0117C34.8087 56.2198 35.4547 55.5738 35.4547 54.7768V52.0293C35.4547 52.8263 34.8087 53.4723 34.0117 53.4723Z" fill="#FFCEBF"/>
<path d="M27.5433 38.5781H9.27364V52.3662C9.35423 52.3706 9.43511 52.3745 9.51659 52.3755L9.59194 52.3759C11.1879 52.3759 12.6879 51.7548 13.8155 50.6272C14.4102 50.0326 14.8639 49.3346 15.1601 48.5734C16.6087 49.2595 18.2123 49.6355 19.8673 49.6355C20.3059 49.6355 20.752 49.6088 21.1979 49.5555L23.1658 49.3177L23.36 49.2671C23.3756 49.2631 23.3911 49.2591 23.4067 49.2549C25.8581 48.6065 27.5433 46.3551 27.5433 43.8192V38.5781Z" fill="#FFCEBF"/>
<path d="M15.7556 65.3472H12.9467C12.1632 65.3472 11.5281 64.7121 11.5281 63.9285V26.8752V18.5303H17.1741V63.9285C17.1741 64.7121 16.539 65.3472 15.7556 65.3472Z" fill="#BAAFB9"/>
<path d="M13.5914 48.6638C13.0031 48.0772 12.2974 47.6518 11.5284 47.4072V62.9265C13.5938 62.2661 15.0938 60.3287 15.0938 58.0469C15.0938 57.0038 14.7834 56.009 14.2067 55.1652C14.766 54.3446 15.0938 53.3538 15.0938 52.288C15.0938 50.9197 14.5611 49.6335 13.5914 48.6638Z" fill="#9B8E99"/>
<path d="M17.1741 38.5781H11.5281V52.0553C12.3798 51.7645 13.1607 51.2819 13.8154 50.6272C14.134 50.3086 14.412 49.9604 14.6472 49.5887C14.9912 49.0448 15.66 48.8155 16.268 49.0266C16.5654 49.1297 16.8677 49.2205 17.1741 49.2982V38.5781Z" fill="#9B8E99"/>
<path d="M12.0077 50.2514C12.528 50.7717 12.851 51.4923 12.851 52.2877C12.851 53.8784 11.5607 55.1671 9.97149 55.1671H5.03782H4.38598C3.59061 55.1671 2.87149 54.8442 2.34971 54.3239C1.82794 53.8036 1.50651 53.083 1.50651 52.2877C1.50651 50.6969 2.79524 49.4082 4.38598 49.4082H9.97149C10.7654 49.4082 11.486 49.7311 12.0077 50.2514Z" fill="#FFDFCF"/>
<path d="M12.0079 56.0102C12.5282 56.5305 12.8512 57.2511 12.8512 58.0465C12.8512 59.6372 11.5609 60.9259 9.97168 60.9259H5.03801C4.24265 60.9259 3.52203 60.603 3.00026 60.0827C2.47998 59.5624 2.15705 58.8418 2.15705 58.0465C2.15705 56.4557 3.44728 55.167 5.03801 55.167H9.97168C10.7656 55.167 11.4862 55.4899 12.0079 56.0102Z" fill="#FFDFCF"/>
<path d="M10.2967 53.3122H5.36299H4.71115C3.91578 53.3122 3.19666 52.9892 2.67489 52.469C2.25493 52.0502 1.96773 51.4981 1.87055 50.8853C1.63912 51.3 1.50651 51.7793 1.50651 52.2881C1.50651 53.0834 1.82794 53.804 2.34971 54.3243C2.87149 54.8446 3.59061 55.1675 4.38598 55.1675H5.03782H9.97149C11.5607 55.1675 12.851 53.8788 12.851 52.2881C12.851 52.1329 12.838 51.9765 12.8143 51.8279C12.322 52.71 11.3777 53.3122 10.2967 53.3122Z" fill="#FFCEBF"/>
<path d="M10.2969 59.0711H5.36318C4.56782 59.0711 3.84721 58.7482 3.32543 58.2279C2.90667 57.8091 2.61827 57.2583 2.52064 56.6455C2.28921 57.0601 2.15705 57.5384 2.15705 58.047C2.15705 58.8423 2.47998 59.563 3.00026 60.0832C3.52203 60.6035 4.24265 60.9264 5.03801 60.9264H9.97168C11.5609 60.9264 12.8512 59.6377 12.8512 58.047C12.8512 57.8918 12.8381 57.7353 12.8145 57.5868C12.3222 58.4687 11.3779 59.0711 10.2969 59.0711Z" fill="#FFCEBF"/>
<path d="M8.90772 43.5713H3.61883V46.3273C3.61883 47.4819 3.94475 48.5645 4.50674 49.4862H8.90772C10.54 49.4862 11.8652 48.1624 11.8652 46.5286C11.8652 45.7118 11.5335 44.9716 10.9991 44.4372C10.4632 43.9029 9.72312 43.5713 8.90772 43.5713Z" fill="#FFCEBF"/>
<path d="M8.73878 37.6162H3.61883V43.5616H3.64544H8.73878C10.3794 43.5616 11.7115 42.2311 11.7115 40.5888C11.7115 39.7677 11.3781 39.0238 10.841 38.4866C10.3023 37.9496 9.55837 37.6162 8.73878 37.6162Z" fill="#FFCEBF"/>
<path d="M28.9106 38.5779L28.495 40.3458C27.8025 43.2915 25.5361 45.6119 22.6075 46.3731L20.8388 46.5869C20.5129 46.6258 20.19 46.6452 19.8671 46.6452C16.7708 46.6452 13.9093 44.8572 12.5742 41.9986V46.403C12.5742 47.2268 12.2408 47.9728 11.7011 48.5126C11.1532 49.0605 10.3923 49.3958 9.5536 49.3854C7.90859 49.3649 6.60895 47.9719 6.60895 46.3268V35.9317C6.60895 33.5677 8.52531 31.6514 10.8893 31.6514H16.1997C17.3853 31.6514 18.5454 31.9907 19.5441 32.6306L28.8105 38.5779H28.9106Z" fill="#FFDFCF"/>
<path d="M14.281 27.1546C21.7796 27.1546 27.8583 21.0758 27.8583 13.5773C27.8583 6.07877 21.7796 0 14.281 0C6.7825 0 0.703732 6.07877 0.703732 13.5773C0.703732 21.0758 6.7825 27.1546 14.281 27.1546Z" fill="#F58A97"/>
<path d="M6.23584 13.5775C6.23584 7.02674 10.8774 1.55919 17.0495 0.281667C16.1564 0.0968792 15.2292 0 14.2813 0C6.78273 0 0.703997 6.07873 0.703997 13.5773C0.703997 21.0759 6.78273 27.1546 14.2813 27.1546C15.2292 27.1546 16.1574 27.0577 17.0504 26.8729C10.8783 25.5957 6.23584 20.1282 6.23584 13.5775Z" fill="#F07281"/>
<path d="M17.9979 13.5774L21.6751 9.90012C22.0058 9.56942 22.0058 9.03329 21.6751 8.70259L19.1561 6.18358C18.8254 5.85287 18.2893 5.85287 17.9585 6.18358L14.2813 9.8608L10.6041 6.18358C10.2734 5.85287 9.73726 5.85287 9.40655 6.18358L6.88754 8.70259C6.55684 9.03329 6.55684 9.56942 6.88754 9.90012L10.5648 13.5774L6.88754 17.2546C6.55684 17.5853 6.55684 18.1214 6.88754 18.4523L9.40655 20.9713C9.73726 21.302 10.2734 21.302 10.6041 20.9713L14.2813 17.294L17.9585 20.9713C18.2893 21.302 18.8254 21.302 19.1561 20.9713L21.6751 18.4523C22.0058 18.1216 22.0058 17.5853 21.6751 17.2546L17.9979 13.5774Z" fill="#F9F7F8"/>
</symbol><symbol id="lide-decor-2" viewBox="0 0 36 75">
<path d="M3.07902 47.0083C1.37795 47.0083 -0.00018692 48.3864 -0.00018692 50.0875C-0.00018692 50.938 0.343527 51.7086 0.90148 52.2649C1.45943 52.8212 2.22849 53.1666 3.07887 53.1666H3.77616H9.0519C10.7513 53.1666 12.1311 51.7884 12.1311 50.0874C12.1311 49.2368 11.7857 48.4663 11.2294 47.91C10.6715 47.3537 9.90094 47.0083 9.05205 47.0083H3.07902Z" fill="#EB9C8D"/>
<path d="M0.650012 50.319C1.20796 50.8753 1.97702 51.2207 2.8274 51.2207H3.5244H8.80013C10.2934 51.2207 11.5389 50.1564 11.8194 48.7441C12.0169 49.1505 12.1311 49.6051 12.1311 50.0873C12.1311 51.7884 10.7515 53.1665 9.0519 53.1665H3.77631H3.07932C2.22879 53.1665 1.45988 52.8211 0.901928 52.2648C0.343975 51.7085 0.000261307 50.938 0.000261307 50.0874C0.000261307 49.8814 0.0201454 49.6821 0.058569 49.4875C0.20912 49.7974 0.408562 50.0783 0.650012 50.319Z" fill="#D78878"/>
<path d="M33.8653 65.5382H30.8411L24.5353 68.4862C23.4043 69.015 22.1353 69.2922 20.8453 69.2922H14.3534H8.74841V47.8965H33.8656C34.7773 47.8965 35.5163 48.5266 35.5161 49.3039L35.516 64.1308C35.516 64.9081 34.777 65.5382 33.8653 65.5382Z" fill="#EB9C8D"/>
<path d="M20.8455 65.8618C22.1353 65.8618 23.4043 65.5846 24.5353 65.0558L30.8411 62.1079H33.8653C34.7768 62.1079 35.5158 61.4777 35.5158 60.7004L35.5161 49.3032V49.3038L35.516 64.1307C35.516 64.908 34.777 65.5381 33.8654 65.5381H30.8411L24.5353 68.4861C23.4043 69.0149 22.1353 69.2921 20.8455 69.2921H14.3535H8.74857V65.8618H14.3535H20.8455Z" fill="#D78878"/>
<path d="M25.8985 47.8961V53.23C25.8985 55.9775 23.9556 58.3425 21.2599 58.8731L21.255 58.874C20.8136 58.9268 20.3674 58.9534 19.9287 58.9534C18.2737 58.9534 16.6701 58.5774 15.2216 57.8913C14.9254 58.6524 14.4716 59.3503 13.8771 59.9449C12.7493 61.0726 11.2492 61.6938 9.65323 61.6938L9.57803 61.6934C9.29637 61.6899 9.01963 61.665 8.74843 61.6228V47.896H25.8985V47.8961Z" fill="#D78878"/>
<path d="M12.4056 74.6651H16.4196C16.8702 74.6651 17.2356 74.2997 17.2356 73.8491V21.6177H11.5896V73.8491C11.5897 74.2997 11.9549 74.6651 12.4056 74.6651Z" fill="#BAAFB9"/>
<path d="M11.5896 56.7251C12.359 56.9698 13.0653 57.3958 13.6551 57.9839C14.6224 58.9512 15.155 60.2374 15.155 61.6058C15.155 62.6717 14.8275 63.6623 14.2682 64.4829C14.8444 65.3258 15.155 66.3212 15.155 67.3648C15.155 69.6465 13.6551 71.5838 11.5896 72.2443V56.7251Z" fill="#9B8E99"/>
<path d="M11.5896 47.896H17.2356V58.6161C16.8466 58.5174 16.4643 58.3978 16.0903 58.2583C15.6092 58.0789 15.0754 58.2867 14.8163 58.7299C14.5599 59.1682 14.2455 59.5764 13.8771 59.9449C13.2223 60.5997 12.4414 61.0823 11.5897 61.3731V47.896H11.5896Z" fill="#9B8E99"/>
<path d="M3.38424 52.7158C1.65462 52.7158 0.251812 54.117 0.251812 55.8466C0.251812 56.7113 0.602998 57.4949 1.16858 58.0606C1.73595 58.6264 2.51936 58.9774 3.38424 58.9774H8.74848C10.4765 58.9774 11.8793 57.5762 11.8793 55.8466C11.8793 54.9819 11.5281 54.1983 10.9625 53.6326C10.3951 53.0669 9.61173 52.7158 8.74848 52.7158H3.38424Z" fill="#EB9C8D"/>
<path d="M0.878985 56.1899C1.44636 56.7556 2.22976 57.1066 3.09465 57.1066H8.45889C10.0239 57.1066 11.3185 55.9559 11.5493 54.4541C11.7585 54.8741 11.8793 55.346 11.8793 55.847C11.8793 57.5767 10.4765 58.9778 8.74848 58.9778H3.38424C2.51951 58.9778 1.73595 58.6266 1.16858 58.0611C0.602849 57.4953 0.251812 56.7119 0.251812 55.847C0.251812 55.6841 0.265119 55.5229 0.289188 55.3667C0.441086 55.6717 0.640973 55.952 0.878985 56.1899Z" fill="#D78878"/>
<path d="M8.74848 52.716C9.61158 52.716 10.3951 53.0672 10.9625 53.6327C11.5282 54.1985 11.8793 54.9819 11.8793 55.8468C11.8793 57.5764 10.4765 58.9775 8.74848 58.9775H4.67731C4.04819 58.0195 3.68041 56.873 3.68041 55.6452V52.7158H8.74848V52.716Z" fill="#D78878"/>
<path d="M4.44739 58.7266C2.85666 58.7266 1.56792 60.0153 1.56792 61.606C1.56792 62.4014 1.88936 63.122 2.41113 63.6423C2.9329 64.1626 3.65202 64.4855 4.44739 64.4855H5.09923H10.0329C11.6221 64.4855 12.9124 63.1968 12.9124 61.606C12.9124 60.8107 12.5894 60.09 12.0692 59.5698C11.5474 59.0495 10.8268 58.7266 10.0329 58.7266H4.44739Z" fill="#EB9C8D"/>
<path d="M5.09923 64.4854C3.5085 64.4854 2.21827 65.7741 2.21827 67.3648C2.21827 68.1602 2.5412 68.8808 3.06148 69.4011C3.58325 69.9214 4.30386 70.2443 5.09923 70.2443H10.0329C11.6221 70.2443 12.9124 68.9556 12.9124 67.3648C12.9124 66.5695 12.5894 65.8488 12.0692 65.3286C11.5474 64.8083 10.8268 64.4854 10.0329 64.4854H5.09923Z" fill="#EB9C8D"/>
<path d="M2.11969 61.7518C2.64146 62.272 3.36058 62.595 4.15594 62.595H4.80779H9.74146C11.1496 62.595 12.3209 61.5812 12.5701 60.2441C12.7876 60.6493 12.9117 61.1138 12.9117 61.6058C12.9117 63.1966 11.6215 64.4853 10.0322 64.4853H5.09858H4.44673C3.65137 64.4853 2.93225 64.1624 2.41047 63.6421C1.8887 63.1218 1.56726 62.4012 1.56726 61.6058C1.56726 61.4249 1.58401 61.2478 1.61585 61.076C1.74981 61.3255 1.92099 61.5537 2.11969 61.7518Z" fill="#D78878"/>
<path d="M2.77086 67.5103C3.29263 68.0306 4.01325 68.3535 4.80861 68.3535H9.74228C11.1505 68.3535 12.3235 67.343 12.5727 66.0059C12.7902 66.411 12.9127 66.8722 12.9127 67.3643C12.9127 68.955 11.6225 70.2437 10.0332 70.2437H5.09955C4.30418 70.2437 3.58357 69.9208 3.0618 69.4005C2.54152 68.8802 2.21859 68.1596 2.21859 67.3643C2.21859 67.1831 2.23548 67.0053 2.26748 66.8332C2.40143 67.0832 2.57247 67.3121 2.77086 67.5103Z" fill="#D78878"/>
<path d="M3.77585 53.1666H3.68017V47.0083H9.05159C9.90048 47.0083 10.671 47.3537 11.229 47.91C11.7853 48.4663 12.1306 49.237 12.1306 50.0874C12.1306 51.7884 10.751 53.1666 9.05144 53.1666H3.77585Z" fill="#D78878"/>
<path d="M6.6706 45.2501V55.6452C6.6706 57.2903 7.9701 58.6832 9.61526 58.7037C10.4541 58.7142 11.2148 58.3789 11.7627 57.8309C12.3025 57.2912 12.6359 56.5452 12.6359 55.7214V51.317C13.9709 54.1755 16.8325 55.9636 19.9287 55.9636C20.2516 55.9636 20.5746 55.9442 20.9005 55.9053L22.6691 55.6915C25.0684 55.2255 27.0266 53.4956 27.7849 51.1721L28.8572 47.8873L19.6058 41.949C18.6071 41.3091 17.4469 40.9697 16.2614 40.9697H10.9509C8.58696 40.9697 6.6706 42.8861 6.6706 45.2501Z" fill="#EB9C8D"/>
<path d="M14.3423 27.5023C6.84381 27.5023 0.765039 21.4235 0.765039 13.925C0.765039 6.42642 6.84381 0.347656 14.3423 0.347656C21.8409 0.347656 27.9197 6.42642 27.9197 13.925C27.9197 21.4235 21.8409 27.5023 14.3423 27.5023Z" fill="#ADE194"/>
<path d="M21.483 13.925C21.483 7.53541 17.0647 2.177 11.1198 0.731735C12.1517 0.480865 13.2333 0.347656 14.3423 0.347656C21.8409 0.347656 27.9197 6.42639 27.9197 13.925C27.9197 21.4235 21.8409 27.5023 14.3423 27.5023C13.2333 27.5023 12.1528 27.3688 11.121 27.1179C17.0659 25.6726 21.483 20.3145 21.483 13.925Z" fill="#97DA7B"/>
<path d="M9.77355 20.7618H12.896C13.0514 20.7618 13.2007 20.7002 13.311 20.5904L23.0658 10.8715C23.2347 10.7031 23.2377 10.4306 23.0725 10.2587L20.157 7.22281C19.9874 7.04624 19.7061 7.04325 19.5328 7.21593L11.56 15.1594L9.5605 12.6413C9.49667 12.5609 9.3799 12.5464 9.29842 12.609L5.56393 15.475C5.48066 15.5389 5.46571 15.6585 5.53074 15.741L9.32055 20.5487C9.32115 20.5494 9.32174 20.5501 9.32234 20.5509C9.42984 20.688 9.59938 20.7618 9.77355 20.7618Z" fill="#F9F7F8"/>
</symbol><symbol id="lightning" viewBox="0 0 15 18">
<path d="M7 11L9 0L0 11H7Z" fill="black"/>
<path d="M7.5 7L5.5 18L14.5 7H7.5Z" fill="black"/>
</symbol><symbol id="phone" viewBox="0 0 18 18">
<path d="M16.5789 11.8516C15.4686 11.8516 14.3811 11.6782 13.3503 11.3381C12.8473 11.1647 12.276 11.2983 11.9454 11.6356L9.9019 13.1789C7.55716 11.9274 6.05653 10.4277 4.82212 8.10001L6.32369 6.10485C6.70169 5.72685 6.83718 5.17357 6.67518 4.65537C6.33222 3.618 6.15791 2.52948 6.15791 1.42105C6.15791 0.637565 5.52035 0 4.73686 0H1.42105C0.637565 0 0 0.637565 0 1.42105C0 10.5622 7.4378 18 16.5789 18C17.3624 18 18 17.3624 18 16.5789V13.2726C18 12.4892 17.3624 11.8516 16.5789 11.8516Z" fill="#F07281"/>
</symbol></svg>

<?xml version="1.0" encoding="UTF-8"?><!DOCTYPE svg PUBLIC "-//W3C//DTD SVG 1.1//EN" "http://www.w3.org/Graphics/SVG/1.1/DTD/svg11.dtd"><svg xmlns="http://www.w3.org/2000/svg" xmlns:xlink="http://www.w3.org/1999/xlink"><symbol id="lide-decor-1"><path d="M11 44.437a2.958 2.958 0 01-2.091 5.049H3.17A2.953 2.953 0 01.214 46.53 2.957 2.957 0 013.17 43.57h5.737c.815 0 1.555.332 2.091.866z" fill="#FFDFCF"/><path d="M9.233 47.553H3.496a2.953 2.953 0 01-2.912-2.458c-.236.425-.37.914-.37 1.434a2.953 2.953 0 002.958 2.958H8.907a2.958 2.958 0 002.958-2.958c0-.172-.018-.339-.046-.502a2.957 2.957 0 01-2.587 1.526z" fill="#FFCEBF"/><path d="M10.841 38.487a2.973 2.973 0 01-2.102 5.075H2.973A2.968 2.968 0 010 40.59a2.972 2.972 0 012.973-2.973h5.766c.82 0 1.563.333 2.102.87z" fill="#FFDFCF"/><path d="M9.074 41.858H3.308a2.968 2.968 0 01-2.957-2.671c-.224.417-.351.896-.351 1.402a2.968 2.968 0 002.973 2.973h5.766a2.973 2.973 0 002.957-3.277 2.972 2.972 0 01-2.622 1.573z" fill="#FFCEBF"/><path d="M22.944 59.974a6.54 6.54 0 003.147-.806l5.378-2.948h2.543c.797 0 1.443-.646 1.443-1.443V40.02c0-.797-.646-1.443-1.443-1.443H9.274v21.396h13.67z" fill="#FFDFCF"/><path d="M34.012 53.472h-2.543l-5.378 2.949a6.54 6.54 0 01-3.147.805H9.274v2.748h13.67a6.54 6.54 0 003.147-.806l5.378-2.948h2.543c.797 0 1.443-.646 1.443-1.443v-2.748c0 .797-.646 1.443-1.443 1.443zM27.543 38.578H9.273v13.788c.081.005.162.008.244.01h.075a5.934 5.934 0 004.223-1.749 5.954 5.954 0 001.345-2.054 10.994 10.994 0 006.038.983l1.968-.238.194-.05.047-.013c2.451-.649 4.136-2.9 4.136-5.436v-5.24z" fill="#FFCEBF"/><path d="M15.756 65.347h-2.81a1.419 1.419 0 01-1.418-1.418V18.53h5.646v45.398c0 .784-.635 1.42-1.418 1.42z" fill="#BAAFB9"/><path d="M13.591 48.664a5.11 5.11 0 00-2.063-1.257v15.52a5.13 5.13 0 003.566-4.88c0-1.043-.31-2.038-.887-2.882.559-.82.887-1.811.887-2.877a5.09 5.09 0 00-1.503-3.624z" fill="#9B8E99"/><path d="M17.174 38.578h-5.646v13.477a6.022 6.022 0 003.12-2.467 1.376 1.376 0 011.62-.561c.297.103.6.194.906.271v-10.72z" fill="#9B8E99"/><path d="M12.008 50.251a2.88 2.88 0 01-2.036 4.916H4.385a2.875 2.875 0 01-2.88-2.88c0-1.59 1.29-2.879 2.88-2.879h5.585c.794 0 1.515.323 2.037.843z" fill="#FFDFCF"/><path d="M12.008 56.01a2.88 2.88 0 01-2.036 4.916H5.038a2.878 2.878 0 110-5.759h4.934c.794 0 1.514.323 2.036.843z" fill="#FFDFCF"/><path d="M10.297 53.312H4.71a2.875 2.875 0 01-2.84-2.427 2.873 2.873 0 00-.364 1.403 2.875 2.875 0 002.88 2.88H9.97a2.88 2.88 0 002.843-3.34 2.887 2.887 0 01-2.517 1.484zM10.297 59.071H5.363a2.878 2.878 0 01-2.842-2.425 2.868 2.868 0 00-.364 1.401 2.878 2.878 0 002.881 2.88h4.934a2.88 2.88 0 002.843-3.34 2.887 2.887 0 01-2.518 1.484zM8.908 43.571h-5.29v2.756c0 1.155.327 2.238.889 3.16h4.4a2.958 2.958 0 000-5.916zM8.739 37.616h-5.12v5.946h5.12a2.973 2.973 0 000-5.946z" fill="#FFCEBF"/><path d="M28.91 38.578l-.415 1.768a8.156 8.156 0 01-5.887 6.027l-1.77.214a8.054 8.054 0 01-8.265-4.588v4.404c.001.824-.332 1.57-.872 2.11a2.975 2.975 0 01-2.147.872c-1.645-.02-2.945-1.413-2.945-3.058V35.932a4.28 4.28 0 014.28-4.28h5.31c1.186 0 2.346.339 3.345.979l9.267 5.947h.1z" fill="#FFDFCF"/><path d="M14.281 27.155c7.499 0 13.577-6.08 13.577-13.578C27.858 6.08 21.78 0 14.281 0S.704 6.079.704 13.577c0 7.499 6.079 13.578 13.577 13.578z" fill="#F58A97"/><path d="M6.236 13.578c0-6.551 4.641-12.019 10.813-13.296A13.661 13.661 0 0014.281 0C6.783 0 .704 6.079.704 13.577c0 7.499 6.079 13.578 13.577 13.578.948 0 1.876-.097 2.77-.282-6.173-1.277-10.815-6.745-10.815-13.296z" fill="#F07281"/><path d="M17.998 13.577L21.675 9.9a.847.847 0 000-1.197l-2.519-2.52a.847.847 0 00-1.197 0L14.28 9.862l-3.677-3.677a.847.847 0 00-1.197 0l-2.52 2.519a.847.847 0 000 1.197l3.678 3.677-3.677 3.678a.847.847 0 000 1.197l2.519 2.52c.33.33.866.33 1.197 0l3.677-3.678 3.678 3.677c.33.331.866.331 1.197 0l2.52-2.519a.847.847 0 000-1.197l-3.678-3.678z" fill="#F9F7F8"/></symbol><symbol id="lide-decor-2"><path d="M3.079 47.008a3.079 3.079 0 100 6.159h5.973a3.08 3.08 0 000-6.159H3.079z" fill="#EB9C8D"/><path d="M.65 50.319a3.075 3.075 0 002.177.902H8.8a3.08 3.08 0 003.02-2.477c.197.407.311.861.311 1.343a3.08 3.08 0 01-3.08 3.08H3.08A3.074 3.074 0 010 50.087c0-.206.02-.405.059-.6.15.31.35.591.591.832z" fill="#D78878"/><path d="M33.865 65.538h-3.024l-6.306 2.948a8.74 8.74 0 01-3.69.806H8.748V47.897h25.118c.911 0 1.65.63 1.65 1.407V64.13c0 .777-.739 1.407-1.65 1.407z" fill="#EB9C8D"/><path d="M20.846 65.862a8.74 8.74 0 003.69-.806l6.305-2.948h3.024c.912 0 1.65-.63 1.65-1.408l.001-11.397v14.828c0 .777-.739 1.407-1.65 1.407H30.84l-6.306 2.948a8.74 8.74 0 01-3.69.806H8.75v-3.43H20.846z" fill="#D78878"/><path d="M25.898 47.896v5.334a5.75 5.75 0 01-4.638 5.643l-.005.001a10.993 10.993 0 01-6.033-.983 5.957 5.957 0 01-1.345 2.054 5.934 5.934 0 01-4.224 1.749h-.075a5.865 5.865 0 01-.83-.071V47.896h17.15z" fill="#D78878"/><path d="M12.406 74.665h4.014c.45 0 .816-.365.816-.816V21.618H11.59v52.231c0 .45.365.816.816.816z" fill="#BAAFB9"/><path d="M11.59 56.725c.769.245 1.475.67 2.065 1.259a5.088 5.088 0 011.5 3.622 5.092 5.092 0 01-.887 2.877c.576.843.887 1.838.887 2.882a5.13 5.13 0 01-3.565 4.88v-15.52z" fill="#9B8E99"/><path d="M11.59 47.896h5.646v10.72a11.062 11.062 0 01-1.146-.358 1.055 1.055 0 00-1.274.472 6.011 6.011 0 01-3.226 2.643V47.896z" fill="#9B8E99"/><path d="M3.384 52.716a3.132 3.132 0 100 6.261h5.364a3.131 3.131 0 000-6.261H3.384z" fill="#EB9C8D"/><path d="M.879 56.19a3.13 3.13 0 002.216.917h5.364a3.13 3.13 0 003.09-2.653c.21.42.33.892.33 1.393 0 1.73-1.402 3.13-3.13 3.13H3.383a3.13 3.13 0 01-3.095-3.61c.152.305.352.585.59.823z" fill="#D78878"/><path d="M8.748 52.716a3.13 3.13 0 110 6.261h-4.07a6.056 6.056 0 01-.998-3.332v-2.93h5.068v.001z" fill="#D78878"/><path d="M4.447 58.727a2.879 2.879 0 100 5.759h5.586a2.88 2.88 0 000-5.76H4.447z" fill="#EB9C8D"/><path d="M5.1 64.485a2.88 2.88 0 100 5.76h4.933a2.88 2.88 0 000-5.76H5.099z" fill="#EB9C8D"/><path d="M2.12 61.752c.521.52 1.24.843 2.036.843H9.74a2.88 2.88 0 002.83-2.35 2.88 2.88 0 01-2.538 4.241H4.446a2.875 2.875 0 01-2.88-2.88c0-.181.017-.358.049-.53.134.25.305.478.504.676zM2.77 67.51c.523.52 1.243.843 2.039.843h4.933a2.88 2.88 0 002.83-2.347 2.88 2.88 0 01-2.54 4.238H5.101a2.878 2.878 0 01-2.833-3.41c.134.25.305.478.504.676zM3.776 53.167H3.68v-6.159h5.372a3.077 3.077 0 013.079 3.08 3.08 3.08 0 01-3.08 3.079H3.776z" fill="#D78878"/><path d="M6.67 45.25v10.395c0 1.645 1.3 3.038 2.945 3.059.84.01 1.6-.325 2.148-.873.54-.54.873-1.286.873-2.11v-4.404a8.054 8.054 0 008.265 4.588l1.768-.214a6.731 6.731 0 005.116-4.519l1.072-3.285-9.251-5.938a6.198 6.198 0 00-3.345-.98h-5.31a4.28 4.28 0 00-4.28 4.281z" fill="#EB9C8D"/><path d="M14.342 27.502C6.844 27.502.765 21.424.765 13.925S6.844.348 14.342.348c7.499 0 13.578 6.078 13.578 13.577 0 7.498-6.08 13.577-13.578 13.577z" fill="#ADE194"/><path d="M21.483 13.925c0-6.39-4.418-11.748-10.363-13.193a13.642 13.642 0 013.222-.384c7.499 0 13.578 6.078 13.578 13.577 0 7.498-6.08 13.577-13.578 13.577a13.63 13.63 0 01-3.221-.384c5.945-1.445 10.362-6.803 10.362-13.193z" fill="#97DA7B"/><path d="M9.774 20.762h3.122a.588.588 0 00.415-.172l9.755-9.719a.437.437 0 00.007-.612l-2.916-3.036a.437.437 0 00-.624-.007l-7.973 7.943-2-2.518a.188.188 0 00-.262-.032l-3.734 2.866a.188.188 0 00-.033.266l3.79 4.808.001.002c.108.137.277.21.452.21z" fill="#F9F7F8"/></symbol><symbol id="lightning"><path d="M7 11L9 0 0 11h7z" fill="#000"/><path d="M7.5 7l-2 11 9-11h-7z" fill="#000"/></symbol><symbol id="phone"><path d="M16.579 11.852c-1.11 0-2.198-.174-3.229-.514-.503-.173-1.074-.04-1.405.298l-2.043 1.543c-2.345-1.252-3.845-2.751-5.08-5.079l1.502-1.995c.378-.378.513-.931.351-1.45a10.287 10.287 0 01-.517-3.234C6.158.638 5.52 0 4.737 0H1.42C.638 0 0 .638 0 1.421 0 10.562 7.438 18 16.579 18c.783 0 1.421-.638 1.421-1.421v-3.306c0-.784-.638-1.421-1.421-1.421z" fill="#F07281"/></symbol></svg>
